!!!OTL: OSEN AUF DEN WEG GESTREUT
!!!ARE: Europa, Mitteleuropa, Deutschland
!!!SCT: B0653
!!!YEM: Copyright 1995, estate of Helmut Schaffrath.
**kern
*ICvox
*Ivox
*M4/4
*k[b-e-]
*B-:
=1
{4b-
4f
4f
8e-
8d
=2
4g
4g
2g}
=3
{4.a
8b-
4cc
4a
=4
4b-
4dd
2b-}
=5
{4b-
4f
4f
8e-
8d
=6
4g
4g
2g}
=7
{4.a
8b-
4cc
4a
=8
4b-
4dd
2b-}
=9
{4dd
8cc
8b-
4cc
4f
=10
4b-
8a
8g
2a}
=11
{4.dd
8een
4ff
8f
8g
=12
4a
4g
4f
4r}
=13
{4b-
4f
4f
8e-
8d
=14
4g
4g
2g}
=15
{4ee-
8dd
8cc
4b-
4a
=16
2b-
4B-
4r}
==
!!!AGN: Moral - Lied, Vergaenglichkeit
!!!ONB: ESAC (Essen Associative Code) Database: BOEHME
!!!AMT: simple quadruple
!!!AIN: vox
!!!EED: Helmut Schaffrath
!!!EEV: 1.0
*-
